images/logo.svg

<svg xmlns="http://www.w3.org/2000/svg" viewBox="0 0 122.2 103.4" enable-background="new 0 0 122.2 103.4"><style type="text/css">.st0{fill:#FFFFFF;}</style><path class="st0" d="M107 48.5c-3-2.3-5.9-2.3-8.8-2.3h-11.2v21.6h9.2c4.3 0 7.1 0 9.4-1.2 3.1-1.8 5.1-5.3 5.1-9.4.1-3-1-6.5-3.7-8.7zm0-40.7c-3-2.3-5.9-2.3-8.8-2.3h-11.2v21.6h9.2c4.3 0 7.1 0 9.4-1.2 3.1-1.8 5.1-5.3 5.1-9.4.1-3-1-6.5-3.7-8.7zm-47.5 77.4v-85.2h-38.5c-6.9 0-12.5 5.6-12.5 12.6v78.3c0 6.9 5.6 12.6 12.6 12.6h80.1c6.9 0 12.6-5.6 12.6-12.6v-5.9c-3.8.3-7.6.3-11.2.3h-43.1z"/></svg>

<?xml version="1.0" encoding="utf-8"?>
<!-- Generator: Adobe Illustrator 19.1.0, SVG Export Plug-In . SVG Version: 6.00 Build 0)  -->
<svg version="1.1" id="Layer_1" xmlns="http://www.w3.org/2000/svg" xmlns:xlink="http://www.w3.org/1999/xlink" x="0px" y="0px"
	 viewBox="0 0 122.2 103.4" style="enable-background:new 0 0 122.2 103.4;" xml:space="preserve">
<style type="text/css">
	.st0{fill:#FFFFFF;}
</style>
<g>
	<path class="st0" d="M107,48.5c-3-2.3-5.9-2.3-8.8-2.3H87v21.6h9.2c4.3,0,7.1,0,9.4-1.2c3.1-1.8,5.1-5.3,5.1-9.4
		C110.8,54.2,109.7,50.7,107,48.5z"/>
	<path class="st0" d="M107,7.8c-3-2.3-5.9-2.3-8.8-2.3H87v21.6h9.2c4.3,0,7.1,0,9.4-1.2c3.1-1.8,5.1-5.3,5.1-9.4
		C110.8,13.5,109.7,10,107,7.8z"/>
	<path class="st0" d="M59.5,85.2V0H21C14.1,0,8.5,5.6,8.5,12.6v78.3c0,6.9,5.6,12.6,12.6,12.6h80.1c6.9,0,12.6-5.6,12.6-12.6v-5.9
		c-3.8,0.3-7.6,0.3-11.2,0.3H59.5z"/>
</g>
</svg>
